img/linkedin.svg

<?xml version="1.0" encoding="UTF-8"?>
<svg width="20px" height="20px" viewBox="0 0 20 20" version="1.1" xmlns="http://www.w3.org/2000/svg" xmlns:xlink="http://www.w3.org/1999/xlink">
    <!-- Generator: Sketch 48.2 (47327) - http://www.bohemiancoding.com/sketch -->
    <title>Linkedin</title>
    <desc>Created with Sketch.</desc>
    <defs></defs>
    <g id="ETHindia-Team" stroke="none" stroke-width="1" fill="none" fill-rule="evenodd" transform="translate(-1159.000000, -991.000000)">
        <g id="Group-2" transform="translate(1068.000000, 991.000000)" fill="#00A7D3" fill-rule="nonzero">
            <path d="M94,0 C92.4587889,0 91,1.50021316 91,3 L91,17 C91,18.5843141 92.486077,20 94,20 L108,20 C109.542439,20 111,18.5164732 111,17 L111,3 C111,1.38905321 109.544723,0 108,0 L94,0 Z M97.1118681,16.6907692 L94.1232967,16.6907692 L94.1232967,7.76043956 L97.1118681,7.76043956 L97.1118681,16.6907692 Z M95.6178022,6.54043956 L95.5978022,6.54043956 C94.5956044,6.54043956 93.9459341,5.85494505 93.9459341,4.99692308 C93.9459341,4.12153846 94.6147253,3.45472527 95.6367033,3.45472527 C96.6589011,3.45472527 97.2876923,4.12131868 97.3074725,4.99692308 C97.3074725,5.85516484 96.6591209,6.54043956 95.6178022,6.54043956 Z M107.885055,16.6907692 L104.897143,16.6907692 L104.897143,11.912967 C104.897143,10.7120879 104.464396,9.89318681 103.383956,9.89318681 C102.557143,9.89318681 102.066593,10.4457143 101.851209,10.9791209 C101.771209,11.1698901 101.751648,11.4362637 101.751648,11.7026374 L101.751648,16.6907692 L98.7646154,16.6907692 C98.7646154,16.6907692 98.8037363,8.5978022 98.7646154,7.76021978 L101.752088,7.76021978 L101.752088,9.02637363 C102.148791,8.41802198 102.857363,7.55010989 104.444176,7.55010989 C106.410549,7.55010989 107.885055,8.82571429 107.885055,11.5703297 L107.885055,16.6907692 Z M101.732747,9.05472527 C101.737802,9.04637363 101.745275,9.03626374 101.752088,9.02659341 L101.752088,9.05472527 L101.732747,9.05472527 Z" id="Linkedin"></path>
        </g>
    </g>
</svg>

<?xml version="1.0" encoding="utf-8"?>
<!-- Generator: Adobe Illustrator 22.1.0, SVG Export Plug-In . SVG Version: 6.00 Build 0)  -->
<svg version="1.1" id="Layer_1" xmlns="http://www.w3.org/2000/svg" xmlns:xlink="http://www.w3.org/1999/xlink" x="0px" y="0px"
	 viewBox="0 0 20 20" style="enable-background:new 0 0 20 20;" xml:space="preserve">
<style type="text/css">
	.st0{fill:#FFA600;}
</style>
<title>Linkedin</title>
<desc>Created with Sketch.</desc>
<g id="ETHindia-Team" transform="translate(-1159.000000, -991.000000)">
	<g id="Group-2" transform="translate(1068.000000, 991.000000)">
		<path id="Linkedin" class="st0" d="M94,0c-1.5,0-3,1.5-3,3v14c0,1.6,1.5,3,3,3h14c1.5,0,3-1.5,3-3V3c0-1.6-1.5-3-3-3H94z
			 M97.1,16.7h-3V7.8h3V16.7z M95.6,6.5L95.6,6.5c-1,0-1.7-0.7-1.7-1.5c0-0.9,0.7-1.5,1.7-1.5c1,0,1.7,0.7,1.7,1.5
			C97.3,5.9,96.7,6.5,95.6,6.5z M107.9,16.7h-3v-4.8c0-1.2-0.4-2-1.5-2c-0.8,0-1.3,0.6-1.5,1.1c-0.1,0.2-0.1,0.5-0.1,0.7v5h-3
			c0,0,0-8.1,0-8.9h3V9c0.4-0.6,1.1-1.5,2.7-1.5c2,0,3.4,1.3,3.4,4V16.7z M101.7,9.1C101.7,9,101.7,9,101.7,9.1L101.7,9.1L101.7,9.1
			z"/>
	</g>
</g>
</svg>
